X: 92
T: Mai bianshi
%%abc-version 2.0
%%abcx-abcm2ps-target-version 5.9.1 (29 Sep 2008)
%%abc-creator hum2abc beta
%%abcx-conversion-date 2013/10/02 07:52:29
%%abc-edited-by Helmut Schaffrath
%%humdrum-veritas 3617384745
%%humdrum-veritas-data 1866093440
%%continueall 1
%%barnumbers 0
L: 1/8
M: 2/4
K: F
c f/ d/ c G [I:setbarnb 1]| 
c f/ d/ c G | 
F F/ G/ f f/ d/ | 
c FA2 | 
f f/ e/ d c | 
B/ c/ B/ c/E2 | 
G G/ A/ F E | 
C B,C2 |]  



